img/projects/abm.svg

<svg width="56" height="42" viewBox="0 0 56 42" fill="none" xmlns="http://www.w3.org/2000/svg">
<path fill-rule="evenodd" clip-rule="evenodd" d="M4.65633 13.9173C4.66712 13.9173 4.67595 13.9259 4.67622 13.9367C4.68693 14.3549 4.69764 14.7731 4.70835 15.1913C4.7301 16.1299 4.76272 17.0686 4.78447 18.0073C4.78447 18.3387 5.013 18.6299 5.33903 18.689C5.38067 18.6987 5.42233 18.7084 5.46399 18.7182C7.68327 19.2366 9.27047 21.1968 9.32547 23.4751C9.32688 23.5336 9.3283 23.5922 9.32971 23.6507C9.32971 23.9767 9.55546 24.2605 9.8734 24.3324C9.90777 24.3405 9.94214 24.3485 9.97652 24.3566C12.1908 24.8771 13.752 26.8356 13.8066 29.1096C13.8076 29.1524 13.8087 29.1953 13.8097 29.2382C13.8097 29.56 14.0308 29.8286 14.3425 29.9087C16.5864 30.4363 18.2163 32.4536 18.2353 34.7586C18.2353 35.0743 18.451 35.3418 18.758 35.4155C18.7614 35.4163 18.7648 35.4171 18.7682 35.4179C19.4315 35.5744 20.1056 35.7308 20.7798 35.8873C21.8382 36.1444 22.5968 37.0877 22.6059 38.1769C22.6116 38.8515 22.6175 39.5262 22.6175 40.2008C22.6175 40.5164 22.8337 40.7816 23.1394 40.8602C24.5748 41.1954 26.021 41.5418 27.4672 41.8771C27.737 41.9464 28 41.7318 28 41.4532V17.5587C28 15.2411 26.4073 13.2272 24.1516 12.6953C20.8565 11.9183 17.5615 11.1439 14.2664 10.3637C9.68854 9.27969 5.11068 8.2069 0.543689 7.12292C0.265676 7.0557 0.0108472 7.27126 0.0222758 7.55706L0.0326214 7.81577C0.0869903 9.31322 0.130485 10.8107 0.184854 12.2969C0.184854 12.3012 0.18486 12.3055 0.184871 12.3098C0.185721 12.6419 0.42354 12.9305 0.750291 12.9898C2.05438 13.2913 3.34761 13.604 4.65169 13.9168C4.65321 13.9171 4.65477 13.9173 4.65633 13.9173Z" fill="#12253B"/>
<path fill-rule="evenodd" clip-rule="evenodd" d="M51.3437 13.9173C51.3329 13.9173 51.3241 13.9259 51.3238 13.9367C51.3131 14.3549 51.3024 14.7731 51.2916 15.1913C51.2699 16.1299 51.2373 17.0686 51.2155 18.0073C51.2155 18.3387 50.987 18.6299 50.661 18.689C50.6193 18.6987 50.5777 18.7084 50.536 18.7182C48.3167 19.2366 46.7295 21.1968 46.6745 23.4751C46.6731 23.5336 46.6717 23.5922 46.6703 23.6507C46.6703 23.6547 46.6703 23.6588 46.6703 23.6628C46.6703 23.9869 46.4424 24.2595 46.1266 24.3324C46.0922 24.3405 46.0579 24.3485 46.0235 24.3566C43.8092 24.8771 42.248 26.8356 42.1934 29.1096C42.1924 29.1524 42.1913 29.1953 42.1903 29.2382C42.1903 29.56 41.9692 29.8286 41.6575 29.9087C39.4136 30.4363 37.7837 32.4536 37.7647 34.7586C37.7647 35.0743 37.549 35.3418 37.242 35.4155C37.2386 35.4163 37.2352 35.4171 37.2318 35.4179C36.5685 35.5744 35.8944 35.7308 35.2202 35.8873C34.1618 36.1444 33.4032 37.0877 33.3941 38.1769C33.3884 38.8515 33.3825 39.5262 33.3825 40.2008C33.3825 40.5164 33.1663 40.7816 32.8606 40.8602C31.4252 41.1954 29.979 41.5418 28.5328 41.8771C28.263 41.9464 28 41.7318 28 41.4532V17.5587C28 15.2411 29.5927 13.2272 31.8484 12.6953C35.1435 11.9183 38.4385 11.1439 41.7336 10.3637C46.3115 9.27969 50.8893 8.2069 55.4563 7.12292C55.7343 7.0557 55.9892 7.27126 55.9777 7.55706L55.9674 7.81577C55.913 9.31322 55.8695 10.8107 55.8151 12.2969C55.8151 12.3012 55.8151 12.3055 55.8151 12.3098C55.8143 12.6419 55.5765 12.9305 55.2497 12.9898C53.9456 13.2913 52.6524 13.604 51.3483 13.9168C51.3468 13.9171 51.3452 13.9173 51.3437 13.9173Z" fill="#B9C1CC"/>
<path fill-rule="evenodd" clip-rule="evenodd" d="M39.99 10.0889C39.9894 10.0889 39.9887 10.089 39.9881 10.0891L28.6291 12.7357C27.8827 12.9096 27.1063 12.9096 26.36 12.7357L19.8439 11.2175C17.1646 10.5932 15.4256 7.82631 16.9886 5.56235C19.3102 2.19968 23.1564 0 27.5055 0C33.5905 0 38.6911 4.30623 39.9978 10.0791C39.9989 10.0841 39.9951 10.0889 39.99 10.0889Z" fill="#12253B"/>
<path fill-rule="evenodd" clip-rule="evenodd" d="M14 14.9274C14 13.3003 15.6122 12.2979 17.1976 12.6639L23.1249 14.0326C25.3933 14.5564 27 16.5764 27 18.9044V23C27 25.7614 24.6797 28.0902 22.1224 27.0481C17.3603 25.1076 14 20.4108 14 14.9274Z" fill="#B9C1CC"/>
<path fill-rule="evenodd" clip-rule="evenodd" d="M29 26.8156V18.9044C29 16.5764 30.6067 14.5564 32.8751 14.0326L38.8024 12.6639C40.3878 12.2979 42 13.3003 42 14.9274C42 21.7479 36.8012 27.3513 30.1723 27.9475C29.527 28.0056 29 27.4747 29 26.8268V26.8156Z" fill="#12253B"/>
<path fill-rule="evenodd" clip-rule="evenodd" d="M23.8065 21.9723C23.803 21.9687 23.8011 21.9638 23.8011 21.9588C23.8011 21.7814 23.8011 21.6146 23.8011 21.4368C23.8011 21.0648 23.703 20.7492 23.4959 20.4899C23.3978 20.3659 23.2561 20.2419 23.0817 20.1404C22.9074 20.039 22.7003 19.9375 22.4496 19.8586C22.2774 19.7938 22.0899 19.9311 22.0899 20.1151C22.0899 20.4465 22.0899 20.7752 22.0899 21.1099C22.0899 21.421 22.0899 21.732 22.0899 22.043C22.0899 22.3168 22.2606 22.5531 22.515 22.6543C22.9401 22.8121 23.267 22.8347 23.485 22.7219C23.7015 22.61 23.8105 22.3646 23.812 21.9858C23.812 21.9808 23.81 21.9759 23.8065 21.9723ZM24.4502 16.035C24.4466 16.0363 24.4441 16.0397 24.4441 16.0435C24.4441 16.1536 24.4441 16.2636 24.4441 16.3737C24.4441 16.6927 24.1343 16.9194 23.8296 16.8247C23.644 16.7671 23.4597 16.7108 23.2779 16.6571C22.7147 16.474 22.1335 16.9041 22.1335 17.4963C22.1335 17.5172 22.1335 17.538 22.1335 17.5589C22.1335 17.85 22.1335 18.1466 22.1335 18.441C22.1335 18.6699 22.2789 18.8649 22.4932 18.9455C23.3106 19.2161 23.9428 19.5881 24.3569 20.039C24.782 20.5012 25 21.0423 25 21.6736V22.5416C25 23.0714 24.8256 23.4885 24.4877 23.7929C24.3134 23.9507 24.0627 24.0183 23.7357 23.9958C23.4087 23.9845 23.0163 23.883 22.5368 23.7027C22.2752 23.6012 22.0136 23.511 21.7629 23.4096C21.3057 23.2245 21.0024 22.7924 21.0076 22.2992C21.0191 21.2 21.0349 20.1066 21.0436 19.0132C21.0497 18.2506 21.0593 17.4952 21.0685 16.7429C21.0791 15.8747 21.9241 15.2546 22.7548 15.5073C23.3127 15.6737 23.8812 15.8511 24.4498 16.0179C24.4582 16.0204 24.4585 16.0322 24.4502 16.035Z" fill="#12253B"/>
<path fill-rule="evenodd" clip-rule="evenodd" d="M25.0663 8.31277C25.0711 8.31277 25.0741 8.31791 25.0718 8.32213L24.2036 9.91966C24.1773 9.96909 24.126 10 24.07 10H23.2413C23.133 10 23.0646 9.88372 23.1172 9.7891L26.8024 3.08034C26.8286 3.03091 26.88 3 26.9359 3H28.0641C28.12 3 28.1714 3.03091 28.1976 3.08034L31.8828 9.7891C31.9354 9.88372 31.867 10 31.7587 10H30.8874C30.8314 10 30.7801 9.96909 30.7538 9.91966C30.2156 8.92933 29.1787 8.31277 28.0516 8.31277H25.0663ZM-nan -nanL27.4947 3.934L26.5238 5.7126C26.1215 6.44968 26.6549 7.34864 27.4947 7.34864C28.3344 7.34864 28.8679 6.44968 28.4655 5.7126L27.4947 3.934L-nan -nanZ" fill="#B9C1CC"/>
<path fill-rule="evenodd" clip-rule="evenodd" d="M31.0097 24.9892C31.0066 24.9927 31.0008 24.9902 31.0012 24.9855C31.1168 23.5866 31.2325 22.1528 31.3481 20.6842C31.454 19.3072 31.5687 17.9009 31.6842 16.4654C31.704 16.2191 31.8828 16.0125 32.1219 15.9502C32.4454 15.8659 32.7663 16.0777 32.8203 16.4076C32.952 17.2122 33.0783 18.0003 33.2046 18.7661C33.2977 19.3231 34.0887 19.3356 34.1957 18.7811C34.217 18.671 34.2382 18.5607 34.2595 18.4503C34.4422 17.4909 34.6336 16.5121 34.8258 15.5227C34.8602 15.3458 34.9947 15.2026 35.1691 15.1571C35.4692 15.0788 35.7662 15.3018 35.7753 15.6119C35.8115 16.8459 35.8477 18.0455 35.884 19.2105C35.9227 20.4242 35.9615 21.6082 35.992 22.7627C35.9969 22.9466 35.885 23.1126 35.7131 23.1782C35.4334 23.2849 35.1347 23.0797 35.1321 22.7804C35.1259 22.0883 35.1115 21.3839 35.1034 20.6725C35.1034 20.3246 34.5953 20.2798 34.5316 20.6218C34.5147 20.7128 34.4978 20.8038 34.481 20.8947C34.3055 21.8246 34.13 22.7444 33.9544 23.6543C33.9277 23.7927 33.8309 23.9067 33.6997 23.9583C33.4647 24.0505 33.2076 23.9046 33.1656 23.6558C33.045 22.9421 32.9244 22.2127 32.8038 21.4678C32.7392 21.0906 32.1751 21.1195 32.1511 21.5014C32.1471 21.5644 32.1432 21.6273 32.1392 21.6901C32.0921 22.4308 32.0449 23.165 32.0021 23.8879C31.9756 24.3358 31.6887 24.7294 31.2699 24.8903C31.1838 24.9234 31.0977 24.9561 31.0117 24.9879C31.0109 24.9882 31.0103 24.9886 31.0097 24.9892Z" fill="#B9C1CC"/>
</svg>

<svg width="56" height="42" fill="none" xmlns="http://www.w3.org/2000/svg"><path fill-rule="evenodd" clip-rule="evenodd" d="M4.656 13.917a.02.02 0 0 1 .02.02l.032 1.254c.022.939.055 1.878.076 2.816 0 .332.229.623.555.682l.125.03a5.009 5.009 0 0 1 3.861 4.756l.005.176c0 .326.225.61.543.681l.104.025c2.214.52 3.775 2.479 3.83 4.753l.003.128c0 .322.22.59.532.67 2.244.528 3.874 2.546 3.893 4.85 0 .316.216.584.523.657l.01.003c.663.156 1.338.313 2.012.47a2.386 2.386 0 0 1 1.826 2.289c.006.675.011 1.35.011 2.024 0 .315.217.58.522.66 1.436.334 2.882.68 4.328 1.016.27.07.533-.145.533-.424V17.56a4.996 4.996 0 0 0-3.848-4.864c-3.296-.777-6.59-1.551-9.886-2.331C9.69 9.28 5.111 8.207.544 7.123a.422.422 0 0 0-.522.434l.01.259c.055 1.497.098 2.995.153 4.48v.014c0 .332.239.62.565.68 1.304.301 2.598.614 3.902.927h.004Z" fill="#12253B"/><path fill-rule="evenodd" clip-rule="evenodd" d="M51.344 13.917a.02.02 0 0 0-.02.02l-.032 1.254c-.022.939-.055 1.878-.077 2.816a.686.686 0 0 1-.554.682l-.125.03a5.009 5.009 0 0 0-3.861 4.756l-.005.176v.012a.69.69 0 0 1-.543.67l-.104.024c-2.214.52-3.775 2.479-3.83 4.753l-.003.128c0 .322-.22.59-.532.67-2.244.528-3.874 2.546-3.893 4.85a.674.674 0 0 1-.523.657l-.01.003c-.663.156-1.338.313-2.012.47a2.386 2.386 0 0 0-1.826 2.289c-.006.675-.011 1.35-.011 2.024 0 .315-.217.58-.522.66-1.436.334-2.882.68-4.328 1.016a.434.434 0 0 1-.533-.424V17.56a4.996 4.996 0 0 1 3.848-4.864c3.296-.777 6.59-1.551 9.886-2.331 4.578-1.084 9.155-2.157 13.722-3.241a.422.422 0 0 1 .522.434l-.01.259c-.055 1.497-.099 2.995-.153 4.48v.014c0 .332-.238.62-.565.68-1.304.301-2.598.614-3.902.927h-.004Z" fill="#B9C1CC"/><path fill-rule="evenodd" clip-rule="evenodd" d="M39.99 10.089h-.002L28.63 12.736a5 5 0 0 1-2.269 0l-6.516-1.519c-2.68-.624-4.418-3.39-2.855-5.655C19.31 2.2 23.156 0 27.506 0 33.59 0 38.69 4.306 39.998 10.08a.008.008 0 0 1-.008.009Z" fill="#12253B"/><path fill-rule="evenodd" clip-rule="evenodd" d="M14 14.927c0-1.627 1.612-2.63 3.198-2.263l5.927 1.369A5 5 0 0 1 27 18.904V23c0 2.761-2.32 5.09-4.878 4.048A13.08 13.08 0 0 1 14 14.928Z" fill="#B9C1CC"/><path fill-rule="evenodd" clip-rule="evenodd" d="M29 26.816v-7.912a5 5 0 0 1 3.875-4.871l5.927-1.37C40.388 12.299 42 13.3 42 14.928c0 6.82-5.199 12.424-11.828 13.02-.645.059-1.172-.472-1.172-1.12v-.011Zm-5.194-4.844a.02.02 0 0 1-.005-.013v-.522c0-.372-.098-.688-.305-.947a1.482 1.482 0 0 0-.414-.35 3.087 3.087 0 0 0-.632-.281c-.173-.065-.36.072-.36.256v1.928c0 .274.17.51.425.611.425.158.752.18.97.068.216-.112.326-.357.327-.736a.02.02 0 0 0-.006-.014Zm.644-5.937a.01.01 0 0 0-.006.009v.33c0 .319-.31.545-.614.45a64.71 64.71 0 0 0-.552-.167.88.88 0 0 0-1.144.84v.944a.54.54 0 0 0 .36.505c.817.27 1.449.642 1.863 1.093.425.462.643 1.003.643 1.635v.868c0 .53-.174.946-.512 1.25-.175.159-.425.226-.752.204-.327-.011-.72-.113-1.2-.293-.26-.102-.522-.192-.773-.293a1.186 1.186 0 0 1-.755-1.11c.011-1.1.027-2.193.036-3.287.006-.762.015-1.518.024-2.27a1.31 1.31 0 0 1 1.687-1.236c.558.167 1.126.344 1.695.51.008.003.009.015 0 .018Z" fill="#12253B"/><path fill-rule="evenodd" clip-rule="evenodd" d="M25.066 8.313c.005 0 .008.005.006.01l-.868 1.597a.151.151 0 0 1-.134.08h-.829a.142.142 0 0 1-.124-.21l3.685-6.71a.151.151 0 0 1 .134-.08h1.128c.056 0 .107.03.134.08l3.685 6.71a.142.142 0 0 1-.124.21h-.872a.151.151 0 0 1-.133-.08 3.075 3.075 0 0 0-2.702-1.607h-2.986ZM31.01 24.99c-.003.003-.01 0-.009-.005.116-1.398.232-2.832.347-4.3.106-1.378.22-2.784.336-4.22a.586.586 0 0 1 .438-.515.563.563 0 0 1 .698.458c.132.804.258 1.592.385 2.358.093.557.884.57.99.015l.065-.33c.182-.96.374-1.939.566-2.928a.473.473 0 0 1 .343-.366c.3-.078.597.145.606.455l.109 3.598c.039 1.214.078 2.398.108 3.553a.432.432 0 0 1-.279.415.428.428 0 0 1-.58-.398c-.007-.692-.022-1.396-.03-2.108 0-.347-.508-.392-.571-.05l-.051.273c-.175.93-.351 1.85-.527 2.76a.411.411 0 0 1-.254.303.394.394 0 0 1-.534-.302c-.121-.714-.242-1.443-.362-2.188-.065-.377-.629-.349-.653.033l-.012.19c-.047.74-.094 1.474-.137 2.197a1.148 1.148 0 0 1-.732 1.002 21.511 21.511 0 0 1-.26.1Z" fill="#B9C1CC"/></svg>
